src/images/marker-fire.svg

<svg width="23" height="31" viewBox="0 0 23 31" fill="none" xmlns="http://www.w3.org/2000/svg">
<g clip-path="url(#clip0)">
<path d="M21.4644 16.2151C21.1927 15.6276 20.8179 15.0491 20.2698 14.3808C18.8879 12.7035 18.4663 8.96314 18.4616 8.92726C18.4429 8.74787 18.3117 8.59987 18.1384 8.54605C17.9604 8.49223 17.7683 8.54157 17.6418 8.67611C15.9929 10.4566 16.6862 13.2058 17.061 14.3046C17.164 14.6051 17.2765 14.9594 17.356 15.3182C17.965 18.2199 16.7892 19.5339 16.5128 19.7985C16.2458 19.8703 16.0631 19.8344 15.8945 19.6595C15.3136 19.0451 15.1215 17.0314 15.3932 14.4077C15.4495 13.8741 15.4354 13.3942 15.3558 12.9457C14.7828 9.72095 12.6818 7.65245 12.1469 6.92702C10.676 4.82811 10.5261 1.33442 10.5214 1.30302C10.5167 1.13708 10.4183 0.989082 10.2637 0.917325C10.1138 0.845567 9.93113 0.854537 9.7906 0.948719C7.33592 2.55878 7.54673 6.43817 7.88869 8.60435C7.96833 9.10666 8.12292 9.61793 8.38993 10.2637C9.34089 12.5734 8.20255 15.5559 8.19319 15.5828C8.18382 15.6097 8.17445 15.6321 8.16976 15.659C8.02454 16.3945 7.78095 16.8341 7.50925 16.8341C7.48114 16.8341 7.45304 16.8296 7.42025 16.8206C7.08765 16.7533 6.91432 16.4125 6.90964 16.1165C6.8909 12.2909 2.91377 11.0037 2.87161 10.9903C2.6936 10.9365 2.49685 10.9858 2.37505 11.1248C2.24857 11.2639 2.22515 11.4567 2.30947 11.6182C2.35631 11.7124 2.50622 12.125 2.40316 13.5825C2.31415 14.8921 2.06588 16.1882 1.66769 17.4305C0.721428 20.4085 0.871331 23.2294 0.8807 23.364C1.60834 31.002 12.9872 32.3404 19.7404 28.0372C20.4806 27.5663 21.0849 27.0281 21.5299 26.4361C24.0221 23.1173 22.5559 18.6101 21.4644 16.2151ZM4.1552 23.512C4.16926 23.7587 3.97251 23.9694 3.71486 23.9829H3.68676C3.43848 23.9829 3.23236 23.799 3.21831 23.5613C3.17615 22.9065 3.18552 22.2204 3.23704 21.4759C3.25578 21.2292 3.48064 21.0453 3.73828 21.0587C3.99593 21.0767 4.19268 21.2919 4.17394 21.5386C4.12237 22.2473 4.11304 22.8931 4.1552 23.512ZM4.3847 19.5384C4.35659 19.7671 4.15516 19.9331 3.92093 19.9331C3.9022 19.9331 3.88346 19.9331 3.86003 19.9286C3.60707 19.8972 3.42438 19.6774 3.45248 19.4308L3.67734 17.6996C3.71013 17.4574 3.93967 17.2825 4.202 17.3094C4.45965 17.3408 4.64234 17.5651 4.60955 17.8117L4.3847 19.5384Z" fill="#FF6B09"/>
<path d="M18.2951 7.00234C18.0396 6.96444 17.8644 6.73585 17.9038 6.49124C17.933 6.30902 18.1023 5.37618 18.5616 4.90711C18.7384 4.72623 19.0344 4.71681 19.2238 4.88674C19.4125 5.056 19.4221 5.33985 19.2451 5.52072C19.0507 5.71936 18.885 6.28781 18.8297 6.62794C18.7902 6.86994 18.5544 7.03979 18.2951 7.00234Z" fill="#FF6B09"/>
<path d="M1.21733 9.2365C1.12767 8.90297 0.904877 8.3529 0.69103 8.17333C0.49639 8.00994 0.476949 7.72659 0.647558 7.54047C0.817746 7.3539 1.11348 7.33484 1.30859 7.49885C1.81339 7.92258 2.07712 8.83511 2.12495 9.01356C2.18899 9.25337 2.03806 9.4973 1.78781 9.55905C1.53204 9.62063 1.28109 9.47232 1.21733 9.2365Z" fill="#FF6B09"/>
</g>
<defs>
<clipPath id="clip0">
<rect width="22.4855" height="29.6" fill="white" transform="translate(0.471848 0.866699)"/>
</clipPath>
</defs>
</svg>

<svg width="23" height="31" fill="none" xmlns="http://www.w3.org/2000/svg"><g clip-path="url(#clip0)" fill="#FF6B09"><path d="M21.464 16.215c-.271-.587-.646-1.166-1.194-1.834-1.382-1.678-1.804-5.418-1.808-5.454a.455.455 0 00-.324-.381.486.486 0 00-.496.13c-1.65 1.78-.956 4.53-.581 5.629.103.3.215.654.295 1.013.609 2.902-.567 4.216-.843 4.48-.267.072-.45.036-.619-.138-.58-.615-.773-2.629-.5-5.252a5.182 5.182 0 00-.038-1.462c-.573-3.225-2.674-5.294-3.21-6.019-1.47-2.099-1.62-5.593-1.625-5.624a.438.438 0 00-.257-.386.482.482 0 00-.473.032c-2.455 1.61-2.244 5.49-1.902 7.655.08.503.234 1.014.5 1.66.952 2.31-.186 5.292-.196 5.319-.01.027-.019.05-.023.076-.145.736-.39 1.175-.66 1.175a.33.33 0 01-.09-.013c-.332-.068-.506-.409-.51-.705-.02-3.825-3.996-5.112-4.038-5.126a.477.477 0 00-.497.135.43.43 0 00-.066.493c.047.094.197.507.094 1.964a16.233 16.233 0 01-.735 3.848C.72 20.41.87 23.23.88 23.364c.727 7.638 12.106 8.976 18.86 4.673.74-.47 1.344-1.009 1.789-1.6 2.492-3.32 1.026-7.827-.066-10.222zM4.155 23.512a.454.454 0 01-.44.47h-.028a.46.46 0 01-.469-.42c-.042-.655-.032-1.342.019-2.086a.468.468 0 01.501-.417.458.458 0 01.436.48 13.98 13.98 0 00-.019 1.973zm.23-3.974a.46.46 0 01-.464.395c-.019 0-.038 0-.061-.004a.456.456 0 01-.408-.498l.225-1.731a.47.47 0 01.525-.39c.258.03.44.255.408.502l-.225 1.726zM18.295 7.002a.451.451 0 01-.391-.51c.029-.183.198-1.116.658-1.585a.483.483 0 01.662-.02c.189.169.198.453.021.634-.194.198-.36.767-.415 1.107a.466.466 0 01-.535.374zM1.217 9.236c-.09-.333-.312-.883-.526-1.063a.435.435 0 01-.043-.633.482.482 0 01.66-.041c.505.424.77 1.336.817 1.515a.447.447 0 01-.337.545.471.471 0 01-.57-.322z"/></g><defs><clipPath id="clip0"><path fill="#fff" transform="translate(.472 .867)" d="M0 0h22.485v29.6H0z"/></clipPath></defs></svg>
